X:1
T:Non sia chi pensi
T:Non sia chi pensi
T:Antonio Duetto
T:Source : Symphonia Angelica---Anversa---P.Phalesio & G.Bellero---1590. Editor : André Vierendeels (25/01/14).
C:Antonio Duetto
%%score [ 1 2 3 4 ]
L:1/8
Q:1/4=96
M:4/4
K:C
V:1 treble nm="Canto" snm="C"
V:2 treble-8 nm="Tenor 1" snm="T1"
V:3 treble-8 nm="Tenor 2" snm="T2"
V:4 bass nm="Basso" snm="B"
V:1
 A4 F2 F2 | D4 D2 G2- | GFED C2 A,2 | z2 A3 GFE | D2 D2 z2 d2- | dcBA G3 F | E2 D2 E4 | %7
w: Non sia chi|pen- si di|_ po- ter fug- gi- re,|di po- ter fug-|gi- re, di|_ po- ter fug gi- *||
 D2 A2 F2 F2 | D4 D2 G2- | GFED C2 E2- | EDCB, A,2 A2- | AGFE D2 D2 | E8 | E4 ^F4- | F2 ^F2 F4 | %15
w: re, non sia chi|pen- si, di|_ po- ter fug- gir', di-|* po- ter fu- gir', di|_ po- ter fug- gi- re,|del|giu- stis-|* si- mo|
 G3 A B4 | e8- | e4 d4 | ^c4 d4- | d2 cB c4 | d8 | z4 d4- | d4 c4- | c4 B4 | A4 A4 | G8 | F8 | %27
w: Di- * o|l'al-|* ta|ven- det-||ta,|che|_ s'eg-|* l'ha|ben la|man|len-|
 E4 D4 | E8 | D8 | z8 | z2 e2 d4 | d4 c4- | c4 B4 | A8 | A8 | z4 d4 | c6 B2 | A6 A2 | ^G4 A2 A2- | %40
w: t'al pu-|ni-|re,||la man|len- t'al|_ pu-|ni-|re,|fal|per- ch'u-|sar pie-|ta piu si|
 AG FE DE FD | E2 F4 E2 | F4 z4 | z4 z2 c2 | c2 B4 A2- | A2 G2 A2 A2- | A2 G4 F2 | E4 D4 | %48
w: _ _ _ _ _ _ _ _|di- let- *|ta,|per-|che si pen-|* ta l'huom del|_ suo fa-|li- re,|
 z2 ^F4 F2 | G4 G2 G2 | A4 A4- | A4 A4 | z4 B4- | B4 c4 | d8 | e8 | A8 | z8 | d4 c2 A2 | B4 A2 A2 | %60
w: il be-|ni- gno si-|gnor tar-|* da|et|_ as-|pet-||ta,||ma'l pa- ga|po- i, ve-|
 c3 c F2 G2 | A2 D2 z4 | z2 d2 c2 A2 | B4 A4- | A4 z2 d2 | c2 A2 B4 | A2 A2 G2 E2 | F4 E2 E2 | %68
w: den- do os- ti-|na- to,|ma'l pa- ga|po- i,|_ m'al|pa- ga po-|i, ma'l pa- ga|po- i, ve-|
 E3 E F2 F2 | E4 D2 F2 | E3 F G4 | F2 A2 G3 A | B4 A2 c2 | B3 c d4- | d4 ^c4 | d2 B2 A3 B | c6 B2 | %77
w: den- do os- ti-|na- to, con|dop- pia pe-|na, con dop- pia|pe- na, con|dop- pia pe-||na d'o- gni suo|pec- *|
 A8 | ^F8 |] %79
w: ca-|to.|
V:2
 z4 a4 | f2 f2 d2 d2 | g3 f ed c2 | A4 z2 a2- | agfe d2 d2 | z2 g3 fed |"^#" c2 d4 c2 | d4 z2 a2 | %8
w: chi|pen- si di po-|ter fug- gi- re, di|po- ter|_ fug- gi- re, di po-|ter fug- gi- re,|non * *|sia chi|
 f2 f2 d4 | e2 e3 dcB | A2 A2 a3 g | fe d2 A4 | c8 | B4 d4- | d2 d2 d4 | d8 | a8 | f4 g4 | a8- | %19
w: pen- si, di|po- ter fug- gi- re,|di po- ter fug-|gi- re, del giu-|stis-|si- mo|* Dio l'al-|ta|ven-|det- ta,|che|
 a8 | a4 z2 f2 | e4 d4 | e4 e4- | e4 d4- | d4 f4- | f4 e4- | e4 d4 | c4 d4- |"^#" d4 c4 | %29
w: |s'eg- l'ha|ben la|man len-|_ t'al|_ pu-|* ni-|_ re,|la *||
 d4 z2 a2 | g4 f4 | e2 c2 d3 e | fe fg a4 | d4 z2 g2- | g2 f2 e4 | ^f8 |"^b" z4 b4- | b2 a4 g2 | %38
w: man len-|t'al pu-|ni- re, al- *||pu- ni-|_ re, fal|per-|ch'u-|_ sar pie-|
 e4 f4 | e2 e2 ed cB | A2 A2 FG AB | c8 | c8 | z2 f2 f2 e2 | d2 d2 c4 | d4 e4 | f2 e3 d d2- | %47
w: ta piu|si di- let- _ _ _|_ ta, per- * * *||che|si pen- ta|l'huom del suo|fa- li-|re, il * *|
"^#" d2 c2 d4 | z2 d4 d2 | d4 e2 e2 | f4 f4 | e8 | z4 g4- | g4 g4 | g8- | g8 | ^f8 | z8 | z8 | %59
w: * * be-|ni- gno|si- gnor tar-|da et|as-|pet-|_ ta,|ma'l||pa-|||
 g4 f2 d2 | e4 d2 d2 | f3 f e2 c2 | d3 e f2 e2 | z4 z2 f2 | e2 c2 d3 e | f2 e2 z2 e2 | c2 d2 e4 | %67
w: ga po- i,|ven- den- do|os- ti na- to,|m'al * * pa-|ga|po- i, m'al *|* pa- ga|po- i, ve-|
 A2 A2 c3 c | B2 c2 dA d2- | d2 c2 d4 | z2 c2 B3 c | d2 c2 z2 e2 | d3 e f2 e2 | z2 g2 f3 g | %74
w: den- do os- si-|na- to, con * *|* * dop-|pia pe- na,|con dop- pia|pe- na, con dop-|pia pe- na,|
 a4 a4- | a2 g4 f2 | e4 d4- |"^#" d4 c4 | d8 |] %79
w: d'o- gni|_ suo pec-|ca- to.|* Non|sia|
V:3
 z8 | z2 d2 B2 B2 | G4 A2 A2- | AGFE D2 D2 | z2 d3 cBA | G8 | A8 | D4 z4 | z2 d2 B2 B2 | G4 A4 | %10
w: |chi pen- si|di po- ter|_ fug- gi- re, di po-|ter fug- gi- re,|non||sia|chi pen- si|di po-|
 e3 d cB A2 | A2 DE FG A2 | A4 A4 | G4 A4- | A4 A4 | B2 c2 d4- | d2 c2 c2 Bc | d8 | e4 f2 f2 | e8 | %20
w: ter fug- gi- re di|po- ter fug- gi- re, del|giu- stis-|si- mo|* Di-|o, l'al- *||ta|ven- det- ta,|che|
 d4 z2 d2 | c4 B4 | A4 A4 | G8 | F8 | C8 | D8 | A8- | A8 | D8 | z2 G2 A2 B2 | c2 A4 G2 | F6 E2 | %33
w: s'eg- l'ha|ben la|man len-|t'al|pu-|ni-|re,|che-||s'eg-|l'ha ben la|man len- t'al|pu- ni-|
 GA Bc d2 e2- |"^#" ed d4 c2 | d8 | z4 f4 | f4 d2 d2- | d2 c2 d3 c | B2 B2 cd ec | %40
w: re, * * * * fal||per|ch'u-|sar pie- ta|_ piu si _|_ di- let- _ _ _|
 d3 c/B/ A3 G/F/ | G2 A2 G4 | F2 A2 A2 G2 | F2 F2 G2 G2- | G2 d2 f2 e2- | ed d4 c2 | d2 B2 c2 A2 | %47
w: _ _ _ _ _ _|* ta, per-|che si pen- ta|l'huom del suo fa-|_ li- re, del||suo fa- li- re,|
 A4 A4 | z2 A4 A2 | B4 c2 c2 | c4 d4- | d4 ^c4 | z4 d4- | d4 e4 | B2 c2 d4- | d4 c4 | d8 | z8 | %58
w: il be-|ni- gno|si- gnor tar-|da et|* as-|pet-|_ ta,|ma'l * *||pa-||
 z8 | z4 d4 | c2 A2 _B4 | A2 A2 c3 c | F2 G2 A4- |"^#" A2 G2 z2 d2 | c2 A2 B4 | A2 c2 B2 G2 | %66
w: |ga|po- i ve-|den- do os- ti-|na- to, m'al|* pa- ga|po- i, m'al|pa- ga po- i,|
 A4 B2 ^c2 | d3 d G2 A2- | A2 G2 A4- | A4 z4 | z2 A2 G3 A | B2 A2 c2 B2- | Bc d4 c2 | z2 e2 d3 e | %74
w: ve- den- do|os- ti- na- to,|* con dop-|_|pia pe- na,|con dop- pia pe-|* na, con dop-|pia pe- na,|
 f4 e4 | d6 D2 | G4 G4 | E8 | D8 |] %79
w: d'o- gni|suo pec-|ca- to.|Non|sia|
V:4
 z8 | z8 | z8 | z8 | z8 | z8 | z4 A,4 | F,2 F,2 D,4 | D,4 G,3 F, | E,D, C,2 A,,4 | z2 A,3 G,F,E, | %11
w: ||||||chi|pen- si di|po- ter fug-|gi- re, di po-|ter fu- gi- re,|
 D,8 | A,,4 A,,4 | E,4 D,4- | D,2 D,2 D,4 | G,8 | A,8 | _B,4 B,4 | A,8- | A,8 | D,8 | z8 | z8 | %23
w: del|giu- stis-|si- mo|* Dio l'al-|ta|ven-|det- ta,|che||s'eg-|||
 z8 | z8 | z8 | z8 | z8 | z4 A,4- | A,2 G,4 F,2 | E,2 E,2 D,4 | C,4 _B,,4- | B,,4 A,,4 | G,,8 | %34
w: |||||l'ha|_ ban la|man len- t'al|pu- ni-|_ re,|fal|
 A,,8 | D,8 | _B,8 | F,4 G,4 | A,4 D,4 | E,4 A,,4 | D,4 D,4 | C,4 C,4 | z2 F,2 F,2 E,2 | %43
w: |per|ch'u-|sar pie-|ta piu|si di-|let- ta,|per- che|si pen- ta|
 D,2 D,2 C,D, E,F, | G,4 A,4 | _B,2 B,2 A,4 | D,2 G,2 C,2 D,2 | A,,4 D,4 | z2 D,4 D,2 | %49
w: l'huom del suo _ _ _|_ fa-|li- re, del|suo fa- li- re,|il be-|ni- gno|
 G,4 C,2 C,2 | F,4 D,4 | A,8 | z4 G,4- | G,4 C,4 | G,6 F,2 | E,8 | D,8 | z8 | z8 | z8 | z8 | %61
w: si- gnor tar-|da et|as-|pet-|_ ta,|m'al *||pa-|||||
 D,4 C,2 A,,2 | _B,,4 A,,2 A,,2 | E,3 E, F,2 D,2 | A,4 G,4 | z2 A,2 G,2 E,2 | F,4 E,2 A,,2 | %67
w: ga po- i|ve- den- do|os- ti- na- to,|m'al pa-|ga po- i,|ve- den- do|
 D,3 D, C,2 A,,2 | E,4 D,4 | z4 D,4 | C,3 D, E,4 | D,2 F,2 E,3 F, | G,4 F,2 A,2 | G,3 A, _B,4 | %74
w: os- ti- na- to|con dop-|pia|pe- na, con|dop- pia pe- na,|con dop- pia|pe- na, d'o-|
 A,8 | D,4 D,4 | C,4 G,,4 | A,,8 | D,8 |] %79
w: gni|suo pec-|ca- to.|||

